X:1
T:Eine Kleine Nachtmusik - 1st Mvmt.
T:Eine Kleine Nachtmusik - 1st Mvmt.
T:M. A. Mozart
T:Arr. & Ed. by Clifton Jones
T:Alto Clarinet
C:Clifton Jones
Z:Alto Clarinet
L:1/8
M:4/4
K:D
V:1 treble nm="Piano" snm="Pno."
V:1
!f! !tenuto![Ff]2 z A !tenuto!d2 z A | dA df !tenuto!a2 z2 | !tenuto!g2 z e !tenuto!g2 z e | %3
 ge ce !tenuto!A2 z2 | FF FF FF FF | GG GG GG GF | FF FF FF FF | GG GG GG GG | FF EE FF AA | %9
 DD EE !tenuto!F2 z2 | z8 |!p! (C4 D4) | G2 G2 E2 E2 | D z A z !tenuto!A2 z2 | z8 | (c4 d4) | %16
 G2 .G.G E2 .E.E | DD DD DD DD | DD DD!p! DD DD | Dd dd"_cresc." dd ee | dd cc dd BB | %21
!f! ee ee ee ee | ee ee ee ee | cd ed cd ec | fe de fe ^df | ee ee ee ee | %26
 !tenuto!eE EE !tenuto!E2 z2 | z8 | z8 | z8 | z8 | z8 | z8 | z8 | z8 | z8 | z8 | z8 | %38
!f! c2 cB ^AF ^GA | Bd BA ^GE FG | Aa aa aa aa | ae ee ee ed | !tenuto!c!p!A BB cc AA | %43
 ^GG AA BB GG | AA BB cc AA | ^GG AA BB GG |!f! AA cB ^AF ^GA | Bd BA ^GE FG | Aa aa aa aa | %49
 (ae) ee ee ed | cE F^G .A.A (c/B/A/B/) | c^G AB .c.c (e/d/c/d/) | ee ^ee !tenuto!f2 z2 | (B6 A^G | %54
 A) z A z A z z2 :|!f! !tenuto!A2 z E !tenuto!A2 z E | AE Ac !tenuto!e2 z2 | %57
 !tenuto!e2 z c !tenuto!e2 z c | ec ^Ac !tenuto!F2 z2 |!p! GG AA BB GG | FF GG AA FF | %61
 GG AA BB GG | FF GG AA FF | GG AA BB GG | FF GG AA FF | EE FF GG EE | EE =FF GG EE | DD CC DD cc | %68
 dd cc dd cd | !tenuto!E2!f! z (A Bc de | g=f) z (C DE =F^G | BA) z2 z4 | z8 | %73
!p! .f.f (fg) .e.e (ef) |!<(! .d.d (df) (fe) .d.A!<)! |!f! d2 z A !tenuto!d2 z A | %76
 dA df !tenuto!a2 z2 | !tenuto!g2 z e !tenuto!g2 z e | ge ce !tenuto!A2 z2 | ff ff ff ff | %80
 gg gg gg gg | ff ff ff ff | gg gg gg gg | f2 aa aa aa | aa aa !tenuto!a2 z2 | z8 |!p! (A4 B4) | %87
 G2 G2 A2 A2 | F z A z !tenuto!d2 z2 | z8 | (A4 B4) | G2 G2 A2 A2 | DD DD DD DD | DD DD!p! DD DD | %94
 Dd dd"_cresc." dd ee | dd cc dd BB |!f! ee ee ee ee | ee ee ee ee | ee ee ee ee | %99
 !tenuto!eA AA !tenuto!A2 z2 | z4 z2 F z | B, z G z E z C z | z2 (e2 d) z e z | (d4 c2) z2 | %104
 z2 (c2 d) z f z | B z G z E2 z .e | (ed) z2 z4 | DD EE FF DD | CC DD EE CC | DD EE FF DD | %110
 CC DD EE CC |!f! Dd fe ^dB cd | eg ed cA Bc | dd dd dd dd | (dA) AA AA AG | F!p!D EE FF DD | %116
 CC DD EE CC | !tenuto!D2 z2 z4 | !tenuto!A2 z2 z4 |!f! dd fe ^dB cd | eg ed cA Bc | df aa aa ag | %122
 !tenuto!fA Bc .d.d EE | Fc de .f.f GG | .A.A ^AA !tenuto!B2 z2 |!p! (E6 DC | !tenuto!D2) z2 z4 | %127
 (E6 DC | !tenuto!D2) z2 !tenuto!d2 z2 | !tenuto!B2 z2!f! !tenuto!g2 z2 | FF FF FF FF | %131
 FF FF FF GG | FF FF FF FF | FF FF FF GG | !tenuto!F2 z2 !tenuto!A2 z2 | %135
 !tenuto!A2 z2 !>!D>D !tenuto!D2 |] %136

